src/images/svg/symbols/markets-stocks-and-indices/american-stocks/stocks-facebook-inc.svg

<svg width="32" height="32" viewBox="0 0 32 32" fill="none" xmlns="http://www.w3.org/2000/svg">
<g clip-path="url(#clip0_13177_34288)">
<path d="M0 16C0 7.16344 7.16344 0 16 0C24.8366 0 32 7.16344 32 16C32 24.8366 24.8366 32 16 32C7.16344 32 0 24.8366 0 16Z" fill="white"/>
<path d="M13.5002 32.0957V20.8477H9.43665V16.1934H13.5002V12.646C13.5002 8.60974 15.8897 6.38219 19.5438 6.38219C21.2943 6.38219 23.1259 6.69685 23.1259 6.69685V10.6584H21.1076C19.1185 10.6584 18.4998 11.9013 18.4998 13.1735V16.1934H22.9369L22.2281 20.8477H18.4998V32.0957C26.149 30.8883 32 24.2283 32 16.1934C32 7.30287 24.8366 0.0957031 16 0.0957031C7.16344 0.0957031 0 7.30287 0 16.1934C0 24.2283 5.85103 30.8883 13.5002 32.0957Z" fill="#1977F3"/>
</g>
<defs>
<clipPath id="clip0_13177_34288">
<path d="M0 16C0 7.16344 7.16344 0 16 0C24.8366 0 32 7.16344 32 16C32 24.8366 24.8366 32 16 32C7.16344 32 0 24.8366 0 16Z" fill="white"/>
</clipPath>
</defs>
</svg>

<svg width="32" height="32" fill="none" xmlns="http://www.w3.org/2000/svg"><g clip-path="url(#a)"><path d="M0 16C0 7.163 7.163 0 16 0s16 7.163 16 16-7.163 16-16 16S0 24.837 0 16Z" fill="#fff"/><path d="M13.5 32.096V20.848H9.437v-4.655H13.5v-3.547c0-4.036 2.39-6.264 6.044-6.264 1.75 0 3.582.315 3.582.315v3.961h-2.018c-1.99 0-2.608 1.243-2.608 2.516v3.02h4.437l-.709 4.654H18.5v11.248C26.149 30.888 32 24.228 32 16.193 32 7.303 24.837.096 16 .096S0 7.303 0 16.193c0 8.035 5.851 14.695 13.5 15.903Z" fill="#1977F3"/></g><defs><clipPath id="a"><path d="M0 16C0 7.163 7.163 0 16 0s16 7.163 16 16-7.163 16-16 16S0 24.837 0 16Z" fill="#fff"/></clipPath></defs></svg>
